editor/icons/MaterialPreviewLight1.svg

<svg height="16" viewBox="0 0 16 16" width="16" xmlns="http://www.w3.org/2000/svg"><path d="m7 1v2h2v-2zm-3.2422 1.3438-1.4141 1.4141 1.4141 1.4141 1.4141-1.4141zm8.4844 0-1.4141 1.4141 1.4141 1.4141 1.4141-1.4141zm-4.2422 1.6562a4 4 0 0 0 -4 4 4 4 0 0 0 4 4 4 4 0 0 0 4-4 4 4 0 0 0 -4-4zm-1 1h2v1 5h-1v-5h-1zm-6 2v2h2v-2zm12 0v2h2v-2zm-9.2422 3.8281-1.4141 1.4141 1.4141 1.4141 1.4141-1.4141zm8.4844 0-1.4141 1.4141 1.4141 1.4141 1.4141-1.4141zm-5.2422 2.1719v2h2v-2z" fill="#e0e0e0"/></svg>

<svg height="16" viewBox="0 0 16 16" width="16" xmlns="http://www.w3.org/2000/svg"><path d="M7 1v2h2V1zM3.758 2.344 2.344 3.758l1.414 1.414 1.414-1.414zm8.484 0-1.414 1.414 1.414 1.414 1.414-1.414zM8 4a4 4 0 0 0 0 8 4 4 0 0 0 0-8zM7 5h2v6H8V6H7zM1 7v2h2V7zm12 0v2h2V7zm-9.242 3.828-1.414 1.414 1.414 1.414 1.414-1.414zm8.484 0-1.414 1.414 1.414 1.414 1.414-1.414zM7 13v2h2v-2z" fill="#e0e0e0"/></svg>
